X:88
T:Watford Hornpipe. ThoH.088
Q:1/2=90
M:C
L:1/8
B:Thompson's Compleat Collection of 120 Favourite Hornpipes.
Z:Village Music Project, Simon Wilson 2016
O:England.
K:G
dgdcTB2AB|cBAG FAFD|dgdcTB2Ac|BGAFG4:||:.d2.d2dgfg|
.d2.d2dgfg|d2c2BGGG|c2B2ADDD|d2c2Bgfg|B2A2G4:|

